/* XPM */
static char * churchwars_pill_xpm[] = {
"32 32 43 1 ",
"  c black",
". c gray2",
"X c #090909",
"o c #0E0E0E",
"O c #111111",
"+ c #151515",
"@ c gray13",
"# c #252525",
"$ c gray16",
"% c #2F2F2F",
"& c gray19",
"* c #353535",
"= c #3A3A3A",
"- c gray24",
"; c #434343",
": c gray29",
"> c #4E4E4E",
", c #515151",
"< c #565656",
"1 c gray35",
"2 c gray36",
"3 c gray38",
"4 c #656565",
"5 c DimGray",
"6 c #717171",
"7 c gray46",
"8 c gray48",
"9 c gray49",
"0 c #818181",
"q c gray52",
"w c #898989",
"e c #8D8D8D",
"r c gray57",
"t c #9A9A9A",
"y c gray62",
"u c gray63",
"i c #A4A4A4",
"p c gray68",
"a c #B2B2B2",
"s c #B4B4B4",
"d c #B9B9B9",
"f c gray74",
"g c None",
/* pixels */
"gggggggggggggggggggggggggggggggg",
"gggggggggggggu7099999ygggggggggg",
"gggggggggggggf.       $ggggggggg",
"gggggggggggggg6 <gggg4 $gggggggg",
"gggggggggggggg0 3ggggg, rggggggg",
"gggggggggggggg9 2gggggd ,ggggggg",
"gggggggggggggg9 2gggggg =ggggggg",
"gggggggggggggg0 2gggggt 3ggggggg",
"gggggggggggggg9 3ggggg@ sggggggg",
"gggggggggggggg9 &q0q5O 3gggggggg",
"gggggggggggggg9 .    .7ggggwsggg",
"gggfgggggggggg9 *iuyagggggd =ggg",
"gg5+gggggggggg9 2gggggggg0X. egg",
"ggo @tgggggggg0 2gggggg0*    -gg",
"g1 .  %agggggg9 2ggggg*   +rgggg",
"ggp5X    >gggg9 2ggg0X   ,gggggg",
"ggggg1.   X3gg0 3gg* . ,yggggggg",
"ggggggg:-   Xq2 >qX  +uggggggggg",
"gggggggggp&         ,ggggggggggg",
"gggggggggggt$.    Opgggggggggggg",
"ggggggggggggg.  . +agggggggggggg",
"gggggggggggro       *agggggggggg",
"gggggggggg;   . -7. . -fgggggggg",
"gggggggg;o  .t6 3gg3.  .,ggggggg",
"ggggggro   =gg0 2gggg<.  .2ggggg",
"ggggg;   owggg0 2gggggg:   o&wgg",
"ggu8O  oeggggg9 2ggggggga* . pgg",
"gg* . -ggggggg0 3ggggggggg5 3ggg",
"ggg  wgggggggg8 <gggggggggg,gggg",
"ggg1>ggggggggg: #ggggggggggggggg",
"ggggggggggggggoX ygggggggggggggg",
"gggggggggggggggggggggggggggggggg"
};
